X: 1
T: Polska #10 i D
O: Sweden
Z: 2009 John Chambers <jc:trillian.mit.edu>
S: handwritten MS by JC from the 1970s
M: 3/4
L: 1/8
K: D
|: "D"A>B A>G F>E | D2 (3DFA d2 | "A7"e>f g>f e>d |1,3 c2 c>B A2 :|2,4 "A7"c/d/e/c/ "D"d4 :|
|: "G"{f}g2 B3 g | "D"f2 A3 f |1,3 "A7"e>f g>f e>d | c>d c>B A>f :|2,4 "A7"e>f g>e c/d/e/c/ | "D"d2 d4 :|
